X: 1
T: Tsiyon
M: 2/4
L: 1/8
K: Gm
"A"\
|:"Gm"BG GG | GG3 \
| "D"AG ^FE | D4 \
| "D"DA AA | A3 D \
| DD =E^F | "Gm"G4 :|
"B"\
[|"Gm"B2B2 | B2 c2 \
| "D"BA3- | A4 \
| A2 A2 | A2 B2 \
| "Gm"AG3- | G4 \
| "Eb"B2 B2 | c2 B2 \
| "D"A4- | A3 d |
| "Gm"d2 c2 | B2 c2 \
| d4- | d2 z2 \
"C"\
|:"Bb"d2 d2 | d2 e2 \
| "Cm"dc3- | c4 \
| "D7"c2 c2 | c2 d2 \
| "Gm"cB3- | B4 |
| "Eb"B2 B2 | c2 B2 \
| "D"A4- | A3 d \
|1"F7"d2 c2 | B2 c2 \
| "Bb"d4- | d2 z2 \
:|2"D7"d2 c2 | B2 A2 \
| "Gm"G4- | G2 z2 |]
